X:123
T:Rose Hill
M:6/8
L:1/8
B:Thompson's Compleat Collection of 200 Favourite Country Dances, vol. 3 (London, 1773)
Z:Transcribed and edited by Flynn Titford-Mock, 2007
Z:abc's:AK/Fiddler's Companion
K:A
Aec def | ecA GAB | FAd EAc | DED [Cc][B,B][A,A] | aec def | ecA GAB | cde fga | fe^d e3 :|
|: efe edc | dcB gab | ded dcB | cAc fga | fdB Gee | cAF [DB][B,c]d | cde fga | cdB A3 :|

